packages/katcn/src/icons/svg/hashtag.svg

<svg width="24" height="24" viewBox="0 0 24 24" fill="none" xmlns="http://www.w3.org/2000/svg">
<path fill-rule="evenodd" clip-rule="evenodd" d="M19.2676 2.03649C19.7998 2.18431 20.1113 2.73552 19.9635 3.26765L14.9635 21.2677C14.8157 21.7998 14.2645 22.1113 13.7324 21.9635C13.2002 21.8157 12.8887 21.2645 13.0365 20.7324L18.0365 2.73237C18.1843 2.20023 18.7355 1.88868 19.2676 2.03649Z" fill="black"/>
<path fill-rule="evenodd" clip-rule="evenodd" d="M10.2676 2.03649C10.7998 2.18431 11.1113 2.73552 10.9635 3.26765L5.96351 21.2677C5.8157 21.7998 5.26449 22.1113 4.73235 21.9635C4.20021 21.8157 3.88866 21.2645 4.03648 20.7324L9.03648 2.73237C9.18429 2.20023 9.7355 1.88868 10.2676 2.03649Z" fill="black"/>
<path fill-rule="evenodd" clip-rule="evenodd" d="M9 16C9 15.4477 9.44772 15 10 15H20C20.5523 15 21 15.4477 21 16C21 16.5523 20.5523 17 20 17H10C9.44772 17 9 16.5523 9 16Z" fill="black"/>
<path fill-rule="evenodd" clip-rule="evenodd" d="M1 16C1 15.4477 1.44772 15 2 15H6C6.55229 15 7 15.4477 7 16C7 16.5523 6.55229 17 6 17H2C1.44772 17 1 16.5523 1 16Z" fill="black"/>
<path fill-rule="evenodd" clip-rule="evenodd" d="M3 8C3 7.44772 3.44772 7 4 7H22C22.5523 7 23 7.44772 23 8C23 8.55228 22.5523 9 22 9H4C3.44772 9 3 8.55228 3 8Z" fill="black"/>
</svg>

<svg xmlns="http://www.w3.org/2000/svg" fill="none" viewBox="0 0 24 24"><path fill="#000" fill-rule="evenodd" d="M19.268 2.036a1 1 0 0 1 .695 1.232l-5 18a1 1 0 0 1-1.926-.536l5-18a1 1 0 0 1 1.23-.696m-8.999 0a1 1 0 0 1 .695 1.232l-5 18a1 1 0 0 1-1.927-.536l5-18a1 1 0 0 1 1.232-.696" clip-rule="evenodd"/><path fill="#000" fill-rule="evenodd" d="M9 16a1 1 0 0 1 1-1h10a1 1 0 1 1 0 2H10a1 1 0 0 1-1-1m-8 0a1 1 0 0 1 1-1h4a1 1 0 1 1 0 2H2a1 1 0 0 1-1-1m2-8a1 1 0 0 1 1-1h18a1 1 0 1 1 0 2H4a1 1 0 0 1-1-1" clip-rule="evenodd"/></svg>
